X:1
T:# / 2 haydn: psalm 31, blest be the name of jacob's god
%%score [ 1 2 3 ]
L:1/8
Q:1/4=120
M:3/2
K:Eb
V:1 treble nm="Soprano"
V:2 treble nm="Alto"
V:3 bass nm="Basso"
V:1
 B4 B4 B4 | e8 g4 | (f4 e4) d4 |"^Joseph Haydn""^1732 - 1809" e8"^," c4 | (c4 B4) e4 | e8 d4 | %6
w: ~Blest be the|name of|Ja- * cob's|God, whose|love , in|hap- piest|
w: A- while with|un- col-|lec- * ted|mind, as|ba- * nish'd|from thy|
w: Ye souls, de-|vo- ted|to * his|fear, with|thank- * ful|love thy|
w: Be strong, be|sted- fast,|so * your|mind from|him * his|full sup-|
 (c4 B4) =A4 | B8"^," B4 | d8 B4 | e8 B4 | (B4 A4) _G4 | F8"^," (E2 e2) | e8 e4 | (e6 f2) (g2 e2) | %14
w: hour * be-|stow'd, has|giv'n with-|in my|lot * to|fall the *|strong- built|ci- * ty's *|
w: fight * I|pin'd; but|thou thy|ser- vant's|pray'r * hast|heard, in *|an- guish|of * my *|
w: god * re-|vere; who|wakes your|cho- sen|train * to|guard, and *|deals to|pride * its *|
w: port * shall|find, ye|faints, that|in his|care * con-|fide, nor *|own, nor|ask, * a *|
 (B6 G2) (A2 F2) | E8"^," A4 | (A4 G4) _d4 | (_d6 c2) (B2 A2) | (G4 A4) F4 | !fermata!E8 z4 |] %20
w: guard * ing *|wall, the|strong * \-built|ci- * ty's *|guard * ing|wall.|
w: heart * pre- *|ferr'd, in|an- * guish|of * my *|heart * pre-|ferr'd|
w: just * re- *|ward, and|deals * to|pride * its *|just * re-|ward.|
w: help * be- *|side, nor|own, * nor|ask * a *|help * be-|side.|
V:2
 G4 G4 F4 | E8 B4 | (A4 G4) F4 | G8"^," G4 | F8 G4 | =A8 B4 | (G2 E2 D4) C4 | D8"^," D4 | F8 B4 | %9
w: ~Blest be the|name of|Ja- * cob's|God, whose|love, in|hap- piest|hour * * be-|stow'd, has|giv'n with-|
w: A- while with|un- col-|lec- * ted|mind, as|ba- nish'd|from thy|fight * * I|pin'd; but|thou thy|
w: Ye souls, de-|vo- ted|to * his|fear, with|thank- ful|love thy|god * * re-|vere; who|wakes your|
w: Be strong, be|sted- fast,|so * your|mind from|him his|full sup-|port * * shall|find, ye|faints, that|
 B8 _G4 | F8 E4 | D8 z4 | e4 d4 c4 | (B6 A2) G4 | (G6 E2) (F2 D2) | E8"^," E4 | E8 B4 | %17
w: in my|lot to|fall|the strong- built|ci- * ty's|guard * ing *|wall, the|strong- built|
w: ser- vant's|pray'r hast|heard,|in an- guish|of * my|heart * pre *|ferr'd, in|an- guish|
w: cho- sen|train to|guard,|and deals to|pride * its|just * re- *|ward, and|deals to|
w: in his|care con-|fide,-|nor own, nor|ask, * a|help * be- *|side, nor|own, nor|
 (B6 A2) (G2 F2) | (E4 F4) D4 | !fermata!E8 z4 |] %20
w: ci- * ty's *|guard * ing|wall.|
w: of * my *|heart * pre-|ferr'd.|
w: pride * its *|just * re-|ward.|
w: ask * a *|help * be-|side.|
V:3
 E4 E4 D4 | C8 G,4 | %2
w: ~Blest be the|name of|
w: A- while with|un- col-|
w: Ye souls, de-|vo- ted|
w: Be strong, be|sted- fast,|
"^Psalm 31""^Blest be the name of Jacob's God""^(""^from""^: Six english Psalms)" (A,4 B,4) B,4 | %3
w: Ja- * cob's|
w: lec- * ted|
w: to * his|
w: so * your|
 E,8"^," E4 | D8 C4 | (F,4 ^F,4) G,4 | (E,4 F,4) F,4 | B,,8"^," B,4 | A,8 A,4 | _G,8 E,4 | %10
w: God, whose|love, in|hap- * piest|hour * be-|stow'd, has|giv'n with-|in my|
w: mind, as|ba- nish'd|from * thy|fight * I|pin'd; but|thou thy|ser- vant's|
w: fear, with|thank- ful|love * thy|god * re-|vere; who|wakes your|cho- sen|
w: mind from|him his|full * sup-|port * shall|find, ye|faints, that|in his|
 D,8 E,4 | B,,8"^," (C,2 C2) | (C4 B,4) A,4 | (G,6 F,2) (E,2 G,2) | B,8 B,,4 | C,8"^," C4 | %16
w: lot to|fall the *|strong- * built|ci- * ty's *|guard- ing|wall, the|
w: pray'r hast|heard, in *|an- * guish|of * my *|heart pre-|ferr'd, in|
w: train to|guard, and *|deals * to|pride * its *|just re-|ward, and|
w: care con-|fide, nor *|own, * nor|ask, * a *|help be-|side, nor|
 (C4 B,4) G,4 | A,8 A,,4 | B,,8 B,,4 | !fermata!E,8 z4 |] %20
w: strong * \-built|ci- ty's|guard- ing|wall.|
w: an * guish|of my|heart pre-|ferr'd.|
w: deals * to|pride its|just re-|ward.|
w: own, * nor|ask, a|help be-|side.|

